X: 1
T: Rambling Pitchfork, The
M: 6/8
L: 1/8
R: jig
K: Dmaj
F2F AFF|dFF AFF|G2G ABc|ded cAG|
FEF AFF|dFF AFF|GFG BAG|FDD D3:|
d2e fed|ecA ABc|dcd fed|faf gfe|
d2e fed|ecA BAF|GFG BAG|FDD D3:|
